!! 00048] TT[KA
!! NN
!!!OTL: Shua shan diao
!!!ARE: Asia, China,ÿYunnan
!! Ethnic Group: Han
!! II, 58, 2)
!!!SCT: C0206
!!!YEM: Copyright 1995, estate of Helmut Schaffrath.
**kern
*ICvox
*Ivox
!! Mixed meters:  3/4; 2/4; 3/8
*M2/4
*k[f#]
*G:
{8dd
8dd
=1
4gg
8ee
16ee
16dd
16dd
16ee
16dd
16dd
=2
8dd
8ee
8cc#
8dd
=3
4gg}
{8ee
16ee
16dd
=4
*M3/8
8dd
8ee
16ee
16dd
=5
*M3/4
8dd
8ee
4dd
16a
16b
8a}
=6
*M2/4
{8a
8d
8g
8a
=7
8dd
8ee
16a
16b
16a
16a
=8
8.g
16e
4d}
=9
{8r
4gg
8dd
=10
8gg
8ee
16ee
16dd
16ee
16dd
=11
8ee
8dd
8ee
8dd
=12
8gg
8b
8ee
8dd}
=13
{8.gg
16gg
8cc#
8dd
=14
8.cc#
16dd
8ee
16ee
16ee}
=15
{8gg
8gg
8ee
8dd
=16
*M3/8
16cc#
16cc#
8cc#
8ee
=17
*M3/4
8ee
8cc
16ee
16gg
8cc
4dd}
=18
*M2/4
{8.gg
16dd
8ee
8cc#
=19
*M3/8
16ee
16ee
8cc#
8ee
=20
*M2/4
8dd
8dd
4r}
=21
*M3/8
{8dd
8ee
16ee
16dd
=22
*M2/4
8dd
8gg
8dd
8ee
=23
*M3/4
16gg
16dd
16dd
16ee
8dd
8dd
8dd
8ee
=24
8dd
16ee
16ee
8gg
8dd
8ee
8dd}
=25
{8dd
16ee
16dd
4dd
16a
16b
8a
=26
*M2/4
8a
16a
16a
8f#
8f#
=27
*M3/8
16f#
16f#
8a
8a}
=28
*M3/4
{8.g
16a
8g
8a
8g
16dd
16f#
=29
*M3/8
8dd
8f#
8g}
=30
*M3/4
{8gg
8ee
4.dd
16ee
16dd
=31
8dd
8dd
8dd
8ee
16a
16b
8a}
=32
*M2/4
{8a
16dd
16ee
8e
8d
=33
8a
8b
16a
16b
8a
=34
*M3/4
4e
4.d
8r}
=35
{2r
8dd
16dd
16dd
=36
4gg
8ee
8ee
16dd
16ee
16dd
16dd
=37
*M2/4
8dd
16a
16a
8dd
8dd
=38
4gg}
{8ee
16ee
16dd
=39
*M3/8
8dd
8ee
16ee
16dd}
=40
*M2/4
{4r
8dd
16ee
16dd
=41
*M3/4
4dd
16a
16b
8a
16a
16g
8d}
=42
*M2/4
{8.dd
16fn
8g
8fn
=43
8.dd
16fn
8g
8fn}
=44
{16a
16a
16a
16a
8g
16e
16d
=45
8g
8a
8dd
16a
16a
=46
*M3/4
4e
2d}
=47
*M2/4
{8dd
16ee
16dd
8cc#
8dd
=48
*M3/8
8gg
8ee
16ee
16dd
=49
*M2/4
8.cc#
16cc#
8dd
8ee}
=50
{8ee
8ee
8cc#
8dd
=51
*M3/8
16cc#
16cc#
8ee
8ee
=52
*M3/4
8gg
8cc#
8ee
8cc#
8dd
16ee
16dd}
=53
{8.cc#
16ee
8cc#
8cc#
8dd
16ee
16ee
=54
*M3/8
8cc#
8cc#
8dd
=55
8ee
8ee
8cc#}
=56
*M3/4
{8gg
8ee
4.dd
32gg
32dd
32gg
32dd
=57
8dd
16ee
16dd
4dd
16a
16b
8a}
=58
*M2/4
{8a
16a
16a
8b
8a
=59
*M3/8
16a
16a
8b
8a
=60
*M3/4
8g
8d
8dd
8ee
16a
16b
16a
16a
=61
*M2/4
4.g
8e
=62
2d}
==
!!!ONB: ESAC (Essen Associative Code) Database: CHINA
!!!AMT: irregular
!!!AIN: vox
!!!EED: Helmut Schaffrath
!!!EEV: 1.0
*-
